src/icons/main-flag.svg

<svg enable-background="new 0 0 12 14" viewBox="0 0 12 14" xmlns="http://www.w3.org/2000/svg"><path d="m.8 2.1c-.5 0-.8.3-.8.7v10.5c0 .4.3.7.8.7s.8-.3.8-.7v-10.5c-.1-.4-.4-.7-.8-.7zm0-2.1c-.5 0-.8.3-.8.7s.3.7.8.7.8-.3.8-.7-.4-.7-.8-.7zm1.4 2.9v5.8c2.3-1.7 6.5 1.8 9.8 0v-5.8c-3.3 2.1-7.5-2.2-9.8 0z" fill="#4d5969"/></svg>

<?xml version="1.0" encoding="utf-8"?>
<!-- Generator: Adobe Illustrator 20.1.0, SVG Export Plug-In . SVG Version: 6.00 Build 0)  -->
<svg version="1.1" id="Layer_1" xmlns="http://www.w3.org/2000/svg" xmlns:xlink="http://www.w3.org/1999/xlink" x="0px" y="0px"
	 viewBox="0 0 12 14" style="enable-background:new 0 0 12 14;" xml:space="preserve">
<style type="text/css">
	.st0{fill:#4D5969;}
</style>
<title>HDL/Icon/Standard/flag</title>
<desc>Created with Sketch.</desc>
<g id="Colors">
	<g id="Main-Icons" transform="translate(-119.000000, -829.000000)">
		<g id="Flag" transform="translate(100.000000, 811.000000)">
			<g id="HDL_x2F_Icon_x2F_Standard_x2F_flag" transform="translate(19.000000, 18.000000)">
				<path id="Shape" class="st0" d="M0.8,2.1C0.3,2.1,0,2.4,0,2.8v10.5C0,13.7,0.3,14,0.8,14s0.8-0.3,0.8-0.7V2.8
					C1.5,2.4,1.2,2.1,0.8,2.1z M0.8,0C0.3,0,0,0.3,0,0.7s0.3,0.7,0.8,0.7s0.8-0.3,0.8-0.7S1.2,0,0.8,0z M2.2,2.9v5.8
					c2.3-1.7,6.5,1.8,9.8,0V2.9C8.7,5,4.5,0.7,2.2,2.9z"/>
			</g>
		</g>
	</g>
</g>
</svg>
